X: 1
T: Waltz Medley #3
T:
P: The Peek-A-Boo Waltz
C: from Kinnon Beaton "Saturday Night Lively"
C: arr. T. Traub 6-26-03
R: Waltz
M: 3/4
K: D
L: 1/4
|: F/>G/ | "D"A f>e|"G"d c B|"D"A ^G B|"D"A2 F/G/|"D"A f>e|"E7"d c d|"A"e e/>^d/d/>e/|"A7" e F G|
"D"A f>e|"G"d c B|"D"A ^G B|"D7"A ^G A |"G"B g>f|"A"e B c|"D"d d/>c/d/>e/|"D"d2 :|
|: F/>G/ |"D"A2 f|"D7"A2 A/>A/ |"G"B2 g|"Em"B2 B/>B/ |"A"c2 c/>c/|"A7"B c B|"D" A ^G B|"A"A2 F/>G/|
"D"A2 f|"D7"A2 A/>A/ |"G"B2 g|"Em"B2 B/>d/ |"A"c B A |"A7"g f e|"D" d d/>c/d/>e/|"D"d2 :|

